icons/bludit.svg

<svg viewBox="0 0 500 500" xmlns="http://www.w3.org/2000/svg"><path d="M140.612 16.07c-4.047-5.703-14.759 53.185-32.231 112.991-4.804 16.441 2.026 33.028 4.504 47.412 4.163 7.306 8.299 17.971 11.806 31.263 1.182 4.478 2.212 9.039 3.132 13.603-9.714 24.615-15.197 52.507-15.197 82.07 0 27.233 4.673 53.036 12.997 76.177 15.68 11.845 30.895 29.083 43.39 50.507a203 203 0 0 1 14.526 30.484c20.008 14.582 43.079 22.916 67.65 22.916 23.204 0 45.067-7.425 64.283-20.53 3.981-10.98 8.641-22.345 15.405-32.87 13.388-20.828 29.896-40.84 46.756-52.963 11.681-18.594 13.204-46.368 12.117-73.721-1.129-28.382-5.072-55.263-14.084-79.156.78-5.804 1.749-11.61 2.952-17.318 3.026-14.378 6.919-25.781 11.003-33.259 1.612-14.066 7.062-30.313 1.89-46.036-20.639-62.742-18.017-9.606-24.026-4.578-7.597 6.359-47.769-56.009-46.187 5.999a356 356 0 0 0 1.061 19.795c-20.802-16.219-45.978 3.808-71.999 3.808-26.675 0-50.755-19.548-71.897-2.569a353 353 0 0 0 .13-22.455c-1.583-62.009-12.812-76.107-37.981-111.57Z" style="fill:#fff;stroke:#000;stroke-miterlimit:4;stroke-dasharray:none;stroke-width:24.1239"/><path d="M248.613 379.622c-9.938 0-32.7 19.471-32.7 32.792 0 3.648 1.125 7.101 3.129 10.2 3.774 1.586 7.436 3.895 10.444 6.766 1.407 1.342 2.569 2.716 3.495 4.082 4.816 1.953 10.37 3.068 16.284 3.068 5.587 0 10.849-.994 15.473-2.75.96-1.469 2.191-2.953 3.708-4.4 3.223-3.076 7.196-5.505 11.255-7.094 1.872-3.012 2.917-6.354 2.917-9.872 0-13.321-23.416-32.792-34.005-32.792Z" style="fill:#000;stroke:#000;stroke-miterlimit:4;stroke-dasharray:none;stroke-width:24.1239"/><path d="M218.799 311.887c35.154-58.053-26.765-136.484-57.653-71.186-13.832 29.241 18.677 97.788 57.653 71.186Z" style="fill:#000;stroke:#000;stroke-linecap:butt;stroke-linejoin:miter;stroke-miterlimit:4;stroke-dasharray:none;stroke-width:24.1239"/><path d="M311.951 273.021c0 5.774-5.285 10.457-11.804 10.457-6.518 0-11.804-4.683-11.804-10.457 0-5.776 5.286-10.458 11.804-10.458s11.804 4.682 11.804 10.458Z" style="fill:#000;stroke:#000;stroke-miterlimit:4;stroke-width:18"/><path d="M229.289 269.988c0 15.501-12.88 28.07-28.771 28.07-15.887 0-28.769-12.569-28.769-28.07 0-15.51 12.882-28.076 28.769-28.076 15.891 0 28.771 12.566 28.771 28.076Z" style="stroke:#000;stroke-miterlimit:4;fill:#fff;stroke-width:24.1239"/></svg>

<?xml version="1.0" encoding="utf-8"?>
<svg viewBox="0 0 500 500" xmlns="http://www.w3.org/2000/svg">
  <defs>
    <pattern id="pattern-0" x="0" y="0" width="20" height="20" patternUnits="userSpaceOnUse" viewBox="0 0 100 100">
      <path d="M 0 0 L 50 0 L 50 100 L 0 100 Z" style="fill: black;"/>
    </pattern>
  </defs>
  <path style="fill: rgb(255, 255, 255); stroke: rgb(0, 0, 0); stroke-miterlimit: 4; stroke-dasharray: none; stroke-width: 24.1239;" d="M 140.612 16.07 C 136.565 10.367 125.853 69.255 108.381 129.061 C 103.577 145.502 110.407 162.089 112.885 176.473 C 117.048 183.779 121.184 194.444 124.691 207.736 C 125.873 212.214 126.903 216.775 127.823 221.339 C 118.109 245.954 112.626 273.846 112.626 303.409 C 112.626 330.642 117.299 356.445 125.623 379.586 C 141.303 391.431 156.518 408.669 169.013 430.093 C 174.86 440.118 179.69 450.381 183.539 460.577 C 203.547 475.159 226.618 483.493 251.189 483.493 C 274.393 483.493 296.256 476.068 315.472 462.963 C 319.453 451.983 324.113 440.618 330.877 430.093 C 344.265 409.265 360.773 389.253 377.633 377.13 C 389.314 358.536 390.837 330.762 389.75 303.409 C 388.621 275.027 384.678 248.146 375.666 224.253 C 376.446 218.449 377.415 212.643 378.618 206.935 C 381.644 192.557 385.537 181.154 389.621 173.676 C 391.233 159.61 396.683 143.363 391.511 127.64 C 370.872 64.898 373.494 118.034 367.485 123.062 C 359.888 129.421 319.716 67.053 321.298 129.061 C 321.471 135.825 321.836 142.432 322.359 148.856 C 301.557 132.637 276.381 152.664 250.36 152.664 C 223.685 152.664 199.605 133.116 178.463 150.095 C 178.74 142.832 178.79 135.327 178.593 127.64 C 177.01 65.631 165.781 51.533 140.612 16.07 Z" id="path2987"/>
  <path id="path3763" d="M 248.613 379.622 C 238.675 379.622 215.913 399.093 215.913 412.414 C 215.913 416.062 217.038 419.515 219.042 422.614 C 222.816 424.2 226.478 426.509 229.486 429.38 C 230.893 430.722 232.055 432.096 232.981 433.462 C 237.797 435.415 243.351 436.53 249.265 436.53 C 254.852 436.53 260.114 435.536 264.738 433.78 C 265.698 432.311 266.929 430.827 268.446 429.38 C 271.669 426.304 275.642 423.875 279.701 422.286 C 281.573 419.274 282.618 415.932 282.618 412.414 C 282.618 399.093 259.202 379.622 248.613 379.622 Z" style="fill: rgb(0, 0, 0); stroke: rgb(0, 0, 0); stroke-miterlimit: 4; stroke-dasharray: none; stroke-width: 24.1239;"/>
  <path style="fill: rgb(0, 0, 0); stroke: rgb(0, 0, 0); stroke-linecap: butt; stroke-linejoin: miter; stroke-miterlimit: 4; stroke-dasharray: none; stroke-width: 24.1239;" d="M 218.799 311.887 C 253.953 253.834 192.034 175.403 161.146 240.701 C 147.314 269.942 179.823 338.489 218.799 311.887 Z" id="path3779"/>
  <path style="fill: rgb(0, 0, 0); stroke: rgb(0, 0, 0); stroke-miterlimit: 4; stroke-width: 18;" d="M 311.951 273.021 C 311.951 278.795 306.666 283.478 300.147 283.478 C 293.629 283.478 288.343 278.795 288.343 273.021 C 288.343 267.245 293.629 262.563 300.147 262.563 C 306.666 262.563 311.951 267.245 311.951 273.021 Z" id="path3785"/>
  <path style="stroke: rgb(0, 0, 0); stroke-miterlimit: 4; fill: rgb(255, 255, 255); stroke-width: 24.1239;" d="M 229.289 269.988 C 229.289 285.489 216.409 298.058 200.518 298.058 C 184.631 298.058 171.749 285.489 171.749 269.988 C 171.749 254.478 184.631 241.912 200.518 241.912 C 216.409 241.912 229.289 254.478 229.289 269.988 Z" id="path-1"/>
</svg>
